!!!SOCIAL_FUNCTION:	songs of personal narratives concerning war
!!!PDT:	1918

Specific Region: Dakotas, Minnesota, Montana, Nebraska
!!!REG: Dakotas and Montana
!!!LING_GROUP: Siouan
!!!LANG: Tone
!!!OTL@ENG: Even the Eagle Dies
!!!ONM: No. 164
**kern
*Imale
*clefF4
*k[f#c#g#]
*M2/4
*MM88
8e
8f#
4e
=2
8e
8f#
4e
=3
16e
8.c#
16c#
8.B
=4
2A
=5
16c#
[8.B
8B]
8d
=6||
*M3/4
16e
8.d
16e
8.B
4A
=7||
*M2/4
8d
8e
16e
8.c
=8||
*M3/4
16e
8.A
16A
8.E
8E
8A
=9
16A
8.E
4E
4E
=10||
*M2/4
4.E
8E
=11
4E
4D
=12||
*M3/4
4E
8E
8E
4r
=13||
*M2/4
8e
8f#
4e
=14
8e
8f#
4e
=15
16e
16d
8c#
16c#
8.B
=16
4A
4r
=17||
*M3/4
8e
8c#
8c#
8c#
8.e
16e
=18
(16e
8.d)
(16e
8.B)
4A
=19||
*M2/4
8d
8e
16e
8.B
=20||
*M3/4
16d
8.A
(16A
8.E)
8E
8A
=21
16A
8.E
4E
4E
=22||
*M2/4
4.E
8E
=23
4E
4D
=24
4E
8E
8E
==
*-
!!!CNT: Native American -- Sioux
!!!MRD: 1911/07//-1914///
!!!OCL: Frances Densmore
!!!YOR1: Teton Sioux Music, Bulletin 61,
!!!YOR2: Bureau of American Ethnology, Smithsonian Institution
!!!PPR: Government Printing Office
!!!PPP: Washington, D.C.
!!!PDT: 1918///
!!!ENC: Craig Stuart Sapp
!!!END: 2002/03/25/
!!!EEV: 2002/03/31/
!!!AGN: War Song/Song of Personal Narrative Concerning War
!!!MPN@@SIO: Wangbli'-waha'chungka
!!!MPN@ENG: Eagle Shield
!!!TXO: Teton Sioux
!!!MLC: Standing Rock Reservation, South Dakota, United States of America
!!!ARL: 45.9/-100.7#
!!!catalog: Catalogue No. 507
!!!PPG: 394
!!!EFL: 169/245
!!!VTS: 2577081780
